X: 37390
T: Sleepless In Syros
R: reel
M: 4/4
K: Dmajor
|:dcde fAGA|dcde fAGA|g3f efed|cAdA egfe|
dcde fAGA|dAeA fAGA|g3f efed|cdec d3A:|
|:g3f eAce|dfaf dcBA|B3A gfed|cAdA egfe|
dcde fAGA|dAeA fAGA|g3f efed|cdec d3A:|

